svg/furkot/freepik/gift.svg

<svg viewBox="0 0 512 512" xmlns="http://www.w3.org/2000/svg"><path d="m18.848 238.018h215.783v-63.809h43.695v63.809h215.784v-128.574h-83.957c15.916-31.51 13.494-67.589-8.979-90.061-12.497-12.5-29.85-19.383-48.856-19.383-24.287 0-49.193 10.979-68.335 30.121-17.929 17.931-24.95 47.06-27.503 71.611-2.553-24.551-9.574-53.682-27.506-71.611-19.139-19.142-44.048-30.121-68.332-30.121-19.006 0-36.357 6.883-48.858 19.383-14.796 14.795-21.619 36.397-18.722 59.265 1.337 10.539 4.631 20.962 9.639 30.796h-83.853zm297.607-175.425c10.437-10.44 23.846-16.674 35.863-16.674 4.769 0 11.484 1.031 16.389 5.935 11.062 11.06 6.045 35.482-10.736 52.261-8.224 8.224-29.869 13.87-56.635 15.05 1.047-21.991 5.545-46.998 15.119-56.572zm-172.202-10.739c4.904-4.904 11.62-5.935 16.389-5.935 12.017 0 25.425 6.234 35.863 16.674 9.659 9.659 14.129 34.428 15.137 56.572-26.773-1.178-48.429-6.823-56.653-15.05-9.035-9.035-15.002-20.418-16.372-31.239-.648-5.099-.774-14.611 5.636-21.022zm90.378 226.917v234.189h-183.066v-234.189zm43.697 234.189v-234.189h183.067v234.189z"/></svg>

<svg xmlns="http://www.w3.org/2000/svg" viewBox="0 0 512 512"><path d="M18.848 238.018H234.631V174.209H278.326V238.018H494.11V109.444H410.153C426.069 77.934 423.647 41.855 401.174 19.383 388.677 6.883 371.324 0 352.318 0 328.031 0 303.125 10.979 283.983 30.121 266.054 48.052 259.033 77.181 256.48 101.732 253.927 77.181 246.906 48.05 228.974 30.121 209.835 10.979 184.926 0 160.642 0 141.636 0 124.285 6.883 111.784 19.383 96.988 34.178 90.165 55.78 93.062 78.648 94.399 89.187 97.693 99.61 102.701 109.444H18.848V238.018ZM316.455 62.593C326.892 52.153 340.301 45.919 352.318 45.919 357.087 45.919 363.802 46.95 368.707 51.854 379.769 62.914 374.752 87.336 357.971 104.115 349.747 112.339 328.102 117.985 301.336 119.165 302.383 97.174 306.881 72.167 316.455 62.593ZM144.253 51.854C149.157 46.95 155.873 45.919 160.642 45.919 172.659 45.919 186.067 52.153 196.505 62.593 206.164 72.252 210.634 97.021 211.642 119.165 184.869 117.987 163.213 112.342 154.989 104.115 145.954 95.08 139.987 83.697 138.617 72.876 137.969 67.777 137.843 58.265 144.253 51.854ZM234.631 278.771V512.96H51.565V278.771H234.631ZM278.328 512.96V278.771H461.395V512.96H278.328Z"/></svg>
